frontend/public/svg/food/water.svg

<svg width="112" height="158" viewBox="0 0 112 158" fill="none" xmlns="http://www.w3.org/2000/svg">
<g clip-path="url(#clip0)">
<path d="M55.5721 156.459C46.2606 156.087 36.945 155.79 27.6401 155.299C24.7445 155.046 21.8668 154.618 19.0225 154.019C17.1047 153.683 16.2075 152.156 15.7954 150.494C15.228 148.095 14.7829 145.667 14.4621 143.223C12.6802 130.675 10.878 118.13 9.20566 105.567C7.45848 92.4464 5.89951 79.3012 4.16744 66.1791C2.46096 53.259 1.10058 40.3227 1.39659 27.2583C1.37483 26.2505 1.2376 25.2485 0.987661 24.2719C0.251906 20.7999 1.29598 17.8679 3.56494 15.2524C6.35503 12.0363 9.87453 9.88425 13.7436 8.26244C19.7679 5.78109 26.0672 4.02899 32.5075 3.04332C46.5066 0.801275 60.5987 -0.40571 74.7757 0.403554C83.8568 0.922061 92.8375 2.2766 101.433 5.48937C102.272 5.80376 103.119 6.11028 103.931 6.48702C110.429 9.50292 112.435 14.2056 111.118 21.3125C108.974 32.885 107.054 44.4989 105.36 56.1542C103.058 71.9161 101.069 87.724 98.9079 103.505C97.5073 113.733 96.1566 123.97 94.5551 134.167C93.7215 139.472 92.4502 144.712 91.2498 149.952C90.835 151.344 90.2692 152.686 89.5637 153.956C88.3521 156.483 86.282 157.414 83.5253 157.303C74.2113 156.932 64.8938 156.647 55.5784 156.325L55.5721 156.459ZM91.4736 85.14C87.4548 85.6204 83.4696 86.3451 79.4626 86.5229C72.0801 86.8511 64.9891 85.0363 58.0089 82.8632C51.4534 80.8226 44.8453 79.082 37.9419 78.8969C30.5108 78.7 23.4486 80.121 16.983 83.9875C15.715 84.7456 15.0914 85.5122 15.3277 87.2035C17.8257 105.074 20.2079 122.96 22.6455 140.839C22.9737 143.246 23.4332 145.637 23.8354 148.059C24.8075 148.176 25.4631 148.321 26.1201 148.326C44.1852 148.527 62.2503 148.715 80.3159 148.887C81.1297 148.841 81.9383 148.729 82.7345 148.553C85.6716 127.218 88.5772 106.139 91.4716 85.142L91.4736 85.14ZM100.508 32.1734C95.7103 33.2019 90.6309 34.6605 85.4491 35.3332C67.9038 37.6114 50.2778 37.5961 32.6512 36.4436C25.142 35.9527 17.6513 35.2025 10.5103 32.5391C9.84217 32.2904 9.13188 32.1552 8.08174 31.8697C9.25527 47.8607 11.9033 63.2426 14.2772 78.851C23.741 73.492 33.4134 71.7238 43.6208 73.3837C48.7002 74.2094 53.7478 75.3409 58.7275 76.647C65.0441 78.3036 71.3503 80.2096 77.9301 79.5277C83.0147 79.0026 88.0265 77.7693 92.8466 76.8918C95.4589 61.6319 97.9943 46.8361 100.506 32.1749L100.508 32.1734ZM52.6611 31.0019C58.1566 31.0019 63.6757 31.3261 69.141 30.9199C76.0569 30.406 82.9524 29.451 89.8104 28.3838C93.6165 27.8772 97.2251 26.3874 100.28 24.0612C105.053 20.284 104.662 15.429 99.118 13.1522C93.7176 10.987 88.207 9.10833 82.6091 7.52406C79.0071 6.47394 75.4045 5.37136 71.5071 5.35429C56.9107 5.22119 42.3534 6.88433 28.1632 10.3063C23.0903 11.5501 18.1763 13.588 13.3581 15.6575C11.2775 16.5501 9.47784 18.2881 7.81927 19.9164C6.33596 21.3722 6.50666 23.2559 8.00836 24.6696C8.81704 25.4473 9.77779 26.049 10.8305 26.4371C13.7633 27.5368 16.7677 28.436 19.8224 29.1281C30.6645 31.2409 41.6747 31.1555 52.6624 31.0032L52.6611 31.0019Z" fill="black"/>
</g>
<defs>
<clipPath id="clip0">
<rect width="111.577" height="157.521" fill="white" transform="translate(0.391113 0.119629)"/>
</clipPath>
</defs>
</svg>

<svg xmlns="http://www.w3.org/2000/svg" width="112" height="158" fill="none" viewBox="0 0 112 158"><g clip-path="url(#a)"><path fill="#000" d="M55.572 156.459c-9.311-.372-18.627-.669-27.932-1.16a72 72 0 0 1-8.617-1.28c-1.918-.336-2.815-1.863-3.228-3.525a73 73 0 0 1-1.333-7.271c-1.782-12.548-3.584-25.093-5.256-37.656C7.458 92.447 5.9 79.301 4.167 66.179c-1.706-12.92-3.066-25.856-2.77-38.92a13.2 13.2 0 0 0-.41-2.987c-.735-3.472.309-6.404 2.578-9.02 2.79-3.216 6.31-5.368 10.179-6.99a81.7 81.7 0 0 1 18.764-5.219C46.507.801 60.598-.406 74.776.403c9.08.52 18.062 1.874 26.657 5.086.839.315 1.686.621 2.498.998 6.498 3.016 8.504 7.719 7.187 14.825a909 909 0 0 0-5.758 34.842c-2.302 15.762-4.291 31.57-6.452 47.351-1.4 10.228-2.751 20.465-4.353 30.662-.834 5.305-2.105 10.545-3.305 15.785a20 20 0 0 1-1.686 4.004c-1.212 2.527-3.282 3.458-6.039 3.347-9.314-.371-18.631-.656-27.947-.978zM91.474 85.14c-4.02.48-8.004 1.205-12.011 1.383-7.383.328-14.474-1.487-21.454-3.66-6.556-2.04-13.164-3.781-20.067-3.966-7.431-.197-14.493 1.224-20.959 5.09-1.268.759-1.892 1.525-1.655 3.217 2.498 17.87 4.88 35.756 7.317 53.635.329 2.407.788 4.798 1.19 7.22.973.117 1.628.262 2.285.267q27.097.302 54.196.561a15 15 0 0 0 2.418-.334c2.938-21.335 5.843-42.414 8.738-63.411zm9.034-52.967c-4.798 1.029-9.877 2.487-15.059 3.16-17.545 2.278-35.171 2.263-52.798 1.11-7.509-.49-15-1.24-22.14-3.904-.669-.249-1.38-.384-2.43-.67 1.174 15.992 3.822 31.374 6.196 46.982 9.464-5.359 19.136-7.127 29.344-5.467 5.08.825 10.127 1.957 15.106 3.263 6.317 1.657 12.623 3.563 19.203 2.88 5.085-.524 10.096-1.758 14.917-2.635 2.612-15.26 5.147-30.056 7.659-44.717zm-47.847-1.171c5.496 0 11.015.324 16.48-.082 6.916-.514 13.811-1.469 20.67-2.536a22.1 22.1 0 0 0 10.469-4.323c4.773-3.777 4.382-8.632-1.162-10.909a165 165 0 0 0-16.509-5.628c-3.602-1.05-7.204-2.153-11.102-2.17a178 178 0 0 0-43.344 4.952c-5.073 1.244-9.987 3.282-14.805 5.352-2.08.892-3.88 2.63-5.539 4.258-1.483 1.456-1.312 3.34.19 4.754a8.1 8.1 0 0 0 2.822 1.767 69 69 0 0 0 8.991 2.691c10.843 2.113 21.853 2.027 32.84 1.875z"/></g><defs><clipPath id="a"><path fill="#fff" d="M.391.12h111.577v157.52H.391z"/></clipPath></defs></svg>
